packages/core/src/svgs/tokens/branded/JUNO.svg

<svg width="24" height="24" viewBox="0 0 24 24" fill="none" xmlns="http://www.w3.org/2000/svg">
<path d="M12 21.4117C17.2941 21.4117 21.4117 16.9999 21.4117 12C21.4117 6.99999 17.2941 2.58823 12 2.58823C6.70588 2.58823 2.58823 6.99999 2.58823 12C2.58823 16.9999 6.70588 21.4117 12 21.4117ZM22 12C22 14.6522 20.9464 17.1957 19.0711 19.071C17.1957 20.9464 14.6522 22 12 22C9.34784 22 6.80429 20.9464 4.92892 19.071C3.05357 17.1957 2 14.6522 2 12C2 9.34785 3.05357 6.80429 4.92892 4.92892C6.80429 3.05357 9.34784 2 12 2C14.6522 2 17.1957 3.05357 19.0711 4.92892C20.9464 6.80429 22 9.34785 22 12Z" fill="#F58580"/>
<path d="M12.5876 6.11754C12.5876 5.82342 12.3994 5.5293 11.9993 5.5293C11.5993 5.5293 11.4111 5.82342 11.4111 6.11754V8.79515L9.42369 6.80574C9.26475 6.6528 8.9707 6.62927 8.68835 6.90574C8.40599 7.18809 8.42953 7.48221 8.58835 7.64103L10.5942 9.64693H7.74051C7.51699 9.64693 7.29346 9.91169 7.29346 10.2352C7.29346 10.5587 7.51699 10.8235 7.74051 10.8235H10.5759L8.57013 12.8293C8.41719 12.9881 8.44071 13.3292 8.67014 13.5646C8.89954 13.7939 9.24661 13.8176 9.40544 13.6645L11.4111 11.6589V15.5293H10.2354C9.85303 15.5293 9.64714 15.794 9.64714 16.1175C9.64714 16.441 9.86483 16.7057 10.2354 16.7057H11.4111V17.8822C11.4111 18.1764 11.6758 18.4705 11.9993 18.4705C12.3229 18.4705 12.5876 18.1764 12.5876 17.8822V16.7057H13.7648C14.1001 16.7057 14.3531 16.441 14.3531 16.1175C14.3531 15.794 14.1001 15.5293 13.7648 15.5293H12.5876V11.6403L14.6119 13.6645C14.7707 13.8176 15.1177 13.7939 15.3472 13.5646C15.5765 13.3292 15.6002 12.9881 15.4412 12.8293L13.4374 10.8235H16.2582C16.4817 10.8235 16.7052 10.6352 16.7052 10.2352C16.7052 9.83524 16.4817 9.64693 16.2582 9.64693H13.423L15.429 7.64103C15.5819 7.48221 15.6113 7.18809 15.3289 6.90574C15.0466 6.62927 14.7525 6.6528 14.5937 6.80574L12.5876 8.81183V6.11754Z" fill="#F0F3FA"/>
</svg>

<svg xmlns="http://www.w3.org/2000/svg" width="24" height="24" fill="none" viewBox="0 0 24 24">
    <path fill="#F58580" d="M12 21.412c5.294 0 9.412-4.412 9.412-9.412S17.294 2.588 12 2.588 2.588 7 2.588 12 6.706 21.412 12 21.412M22 12a10 10 0 1 1-20 0 10 10 0 0 1 20 0"/>
    <path fill="#F0F3FA" d="M12.588 6.118c0-.295-.189-.589-.589-.589s-.588.294-.588.589v2.677l-1.987-1.99c-.16-.152-.453-.176-.736.1-.282.283-.258.577-.1.736l2.006 2.006H7.741c-.224 0-.448.265-.448.588 0 .324.224.588.448.588h2.835L8.57 12.83c-.153.16-.13.5.1.736.23.229.577.253.735.1l2.006-2.006v3.87h-1.176c-.382 0-.588.265-.588.588 0 .324.218.589.588.589h1.176v1.176a.61.61 0 0 0 .588.588.61.61 0 0 0 .589-.588v-1.176h1.177a.583.583 0 0 0 .588-.588.583.583 0 0 0-.588-.589h-1.177v-3.89l2.024 2.024c.159.154.506.13.735-.1.23-.235.253-.576.094-.735l-2.004-2.006h2.821c.224 0 .447-.188.447-.588s-.223-.588-.447-.588h-2.835l2.006-2.006c.153-.159.182-.453-.1-.735-.282-.277-.577-.253-.735-.1l-2.006 2.006z"/>
</svg>
